dist/static/img/service/sale-right.svg

<svg width="189" height="151" viewBox="0 0 189 151" fill="none" xmlns="http://www.w3.org/2000/svg">
<path d="M189 44.7602C189 44.7602 147.363 6.39187 114.992 39.3966C82.6199 72.4079 105.476 95.7503 51.315 112.455C19.5359 122.255 9 151 9 151H189V44.7602Z" fill="#1F5AFF"/>
<path d="M47.5986 110.308C50.6192 113.436 51.8712 116.989 51.3546 120.969C50.8537 124.933 48.5999 128.849 44.5932 132.719C40.902 136.283 36.9654 138.741 32.7835 140.093L26.193 133.269C29.5345 132.057 32.2157 130.887 34.2366 129.76C36.2733 128.617 37.9621 127.399 39.3029 126.104C40.9119 124.55 41.8449 123.054 42.1017 121.615C42.3743 120.161 41.9233 118.826 40.7486 117.61C40.0926 116.93 39.3236 116.513 38.4416 116.357C37.5443 116.185 36.4885 116.213 35.2742 116.439C34.0756 116.65 31.8298 117.308 28.5366 118.412C25.4617 119.458 22.9534 120.033 21.0117 120.137C19.07 120.242 17.1963 119.99 15.3906 119.383C13.5849 118.776 11.8964 117.659 10.3251 116.032C7.36551 112.967 6.07225 109.56 6.44534 105.811C6.8342 102.047 8.85848 98.3974 12.5182 94.8633C14.3165 93.1267 16.234 91.6872 18.2706 90.5447C20.3231 89.387 22.6144 88.3345 25.1444 87.3872L28.2931 95.3831C25.7153 96.4071 23.6741 97.3555 22.1696 98.2283C20.6808 99.0858 19.3528 100.078 18.1855 101.206C16.7973 102.546 16.0453 103.898 15.9294 105.262C15.8135 106.626 16.2589 107.829 17.2658 108.871C17.8913 109.519 18.5903 109.943 19.363 110.143C20.1204 110.328 21.0437 110.337 22.1328 110.17C23.2225 109.973 25.5543 109.278 29.1283 108.086C33.8572 106.511 37.5762 105.927 40.2853 106.333C42.9793 106.724 45.417 108.049 47.5986 110.308Z" fill="#1F5AFF"/>
<path d="M84.337 93.4225L73.8654 87.5982L61.2536 99.7773L66.7089 110.446L58.8059 118.078L37.4224 71.5005L46.3902 62.8404L92.24 85.7906L84.337 93.4225ZM66.1647 83.128C56.6299 77.895 51.2397 74.9335 49.9942 74.2435C48.7644 73.5382 47.8118 72.9621 47.1364 72.5153C48.5685 75.0401 51.9063 81.4796 57.1495 91.8339L66.1647 83.128Z" fill="#1F5AFF"/>
<path d="M96.6175 81.5634L63.1618 46.919L70.497 39.8355L98.0945 68.4136L112.126 54.8636L117.984 60.9299L96.6175 81.5634Z" fill="#1F5AFF"/>
<path d="M143.941 35.8635L124.018 55.1031L90.5622 20.4588L110.485 1.21912L116.298 7.23805L103.71 19.3942L111.055 27.0008L122.768 15.6901L128.58 21.709L116.868 33.0197L125.495 41.9533L138.083 29.7972L143.941 35.8635Z" fill="#1F5AFF"/>
<g clip-path="url(#clip0_1072_6176)">
<path d="M143.43 67.5449C138.4 67.5449 138.391 75.3988 143.43 75.3988C148.461 75.3988 148.47 67.5449 143.43 67.5449Z" fill="#FFDD00"/>
<path d="M129.882 99.8955C124.851 99.8955 124.842 107.749 129.882 107.749C134.904 107.749 134.912 99.8955 129.882 99.8955Z" fill="#FFDD00"/>
<path d="M162.063 118.625C157.033 118.625 157.024 126.479 162.063 126.479C167.094 126.488 167.102 118.625 162.063 118.625Z" fill="#FFDD00"/>
<path d="M172.227 91.3838C167.197 91.3838 167.188 99.2377 172.227 99.2377C177.258 99.2377 177.266 91.3838 172.227 91.3838Z" fill="#FFDD00"/>
<path d="M170.53 62.4355C165.5 62.4355 165.491 70.2895 170.53 70.2895C175.561 70.2895 175.569 62.4355 170.53 62.4355Z" fill="#FFDD00"/>
<path d="M116.323 69.2422C111.292 69.2422 111.284 77.0961 116.323 77.0961C121.354 77.1048 121.362 69.2422 116.323 69.2422Z" fill="#FFDD00"/>
<path d="M138.348 42C133.318 42 133.309 49.8539 138.348 49.8539C143.379 49.8539 143.388 42 138.348 42Z" fill="#FFDD00"/>
<path d="M102.772 110.113C97.7417 110.113 97.7331 117.967 102.772 117.967C107.803 117.967 107.811 110.113 102.772 110.113Z" fill="#FFDD00"/>
<path d="M145.128 127.146C140.097 127.146 140.089 135 145.128 135C150.15 135 150.158 127.146 145.128 127.146Z" fill="#FFDD00"/>
</g>
<defs>
<clipPath id="clip0_1072_6176">
<rect width="77" height="93" fill="white" transform="translate(99 42)"/>
</clipPath>
</defs>
</svg>

<svg width="189" height="151" viewBox="0 0 189 151" fill="none" xmlns="http://www.w3.org/2000/svg"><path d="M189 44.76s-41.637-38.368-74.008-5.363c-32.372 33.01-9.516 56.353-63.677 73.058C19.535 122.255 9 151 9 151h180V44.76z" fill="#1F5AFF"/><path d="M47.599 110.308c3.02 3.128 4.272 6.681 3.756 10.661-.501 3.964-2.755 7.88-6.762 11.75-3.691 3.564-7.628 6.022-11.81 7.374l-6.59-6.824c3.341-1.212 6.023-2.382 8.044-3.509 2.036-1.143 3.725-2.361 5.066-3.656 1.609-1.554 2.542-3.05 2.799-4.489.272-1.454-.179-2.789-1.353-4.005-.656-.68-1.425-1.097-2.307-1.253-.898-.172-1.953-.144-3.168.082-1.198.211-3.444.869-6.737 1.973-3.075 1.046-5.584 1.621-7.525 1.725a14.95 14.95 0 01-5.621-.754c-1.806-.607-3.495-1.724-5.066-3.351-2.96-3.065-4.253-6.472-3.88-10.221.39-3.764 2.413-7.414 6.073-10.948 1.798-1.736 3.716-3.176 5.753-4.318 2.052-1.158 4.343-2.21 6.873-3.158l3.15 7.996c-2.579 1.024-4.62 1.973-6.124 2.845a20.228 20.228 0 00-3.985 2.978c-1.388 1.34-2.14 2.692-2.256 4.056-.116 1.364.33 2.567 1.337 3.609.625.648 1.324 1.072 2.097 1.272.757.185 1.68.194 2.77.027 1.09-.197 3.421-.892 6.995-2.084 4.73-1.575 8.448-2.159 11.157-1.753 2.694.391 5.132 1.716 7.314 3.975zm36.738-16.886l-10.472-5.824-12.611 12.18 5.455 10.668-7.903 7.632L37.422 71.5l8.968-8.66 45.85 22.95-7.903 7.632zM66.165 83.129a9714.112 9714.112 0 01-16.17-8.885c-1.23-.705-2.183-1.28-2.859-1.728 1.432 2.525 4.77 8.965 10.014 19.319l9.015-8.706zm30.453-1.566L63.162 46.92l7.335-7.083 27.597 28.578 14.032-13.55 5.858 6.066-21.366 20.633zm47.323-45.699l-19.923 19.24-33.456-34.645 19.923-19.24 5.813 6.02-12.588 12.155 7.345 7.607 11.713-11.31 5.812 6.018-11.712 11.31 8.627 8.934 12.588-12.156 5.858 6.067z" fill="#1F5AFF"/><g clip-path="url(#clip0_1072_6176)" fill="#FD0"><path d="M143.43 67.545c-5.03 0-5.039 7.854 0 7.854 5.031 0 5.04-7.854 0-7.854zm-13.548 32.35c-5.031 0-5.04 7.854 0 7.854 5.022 0 5.03-7.853 0-7.853zm32.181 18.73c-5.03 0-5.039 7.854 0 7.854 5.031.009 5.039-7.854 0-7.854zm10.164-27.241c-5.03 0-5.039 7.854 0 7.854 5.031 0 5.039-7.854 0-7.854zm-1.697-28.949c-5.03 0-5.039 7.855 0 7.855 5.031 0 5.039-7.855 0-7.855zm-54.207 6.807c-5.031 0-5.039 7.854 0 7.854 5.031.009 5.039-7.854 0-7.854zM138.348 42c-5.03 0-5.039 7.854 0 7.854 5.031 0 5.04-7.854 0-7.854zm-35.576 68.113c-5.03 0-5.039 7.854 0 7.854 5.031 0 5.039-7.854 0-7.854zm42.356 17.033c-5.031 0-5.039 7.854 0 7.854 5.022 0 5.03-7.854 0-7.854z"/></g><defs><clipPath id="clip0_1072_6176"><path fill="#fff" transform="translate(99 42)" d="M0 0h77v93H0z"/></clipPath></defs></svg>
